X: 6
T: The Killavil
R: jig
M: 6/8
L: 1/8
K: Emin
|: BEE BEE | Bdf edB | BAF FEF | DFA dBA |
BEE GFE | Bdf edB | BAF FAG | FED E3 :|
|: Bef gfe | ~f2f edB | BAF FEF | DFA BAF |
Bef gfe | ~f2f edB | BAB dAF | FED E3 :|


Tune 667	Setting 667

